X:1075
T:Minuet
C:Jean Philippe Rameau
O:France
Z:Transcribed by Frank Nordberg - http://www.musicaviva.com
F:http://abc.musicaviva.com/tunes/rameau-jean-philippe/rameau-minuet-01/rameau-minuet-01-pno2.abc
V:1 Program 1 6 %Harpsichord
V:2 Program 1 6 bass %Harpsichord
M:3/4
L:1/8
K:C
V:1
gfefde|fedecd|egfedc|dcBAG2|
V:2
C,2C2B,2|A,2B,2G,2|C4C,2|G,4F,2|
%
V:1
gfefde|fedecd|egfede|c6:|
V:2
E,4A,2|D,4G,2|C,2G,2G,,2|C,2G,,2C,,2:|
%
V:1
dcBcAB|cBABGA|BdcBAG|AG^FED2|
V:2
G,,2G,2^F,2|E,2^F,2D,2|G,4G,,2|D,4C,2|
%
V:1
dcBcAB|cBABGA|BdcBAG|G6|
V:2
B,,4E,2|A,,4D,2|G,,2D,2-[D,2D,,2]|G,,2G,F,E,D,|
%
V:1
gfefde|fedecd|egfedc|dcBAG2|
V:2
C,2C2B,2|A,2B,2G,2|C4C,2|G,4F,2|
%
V:1
gfefde|fedecd|egfede|c6|]
V:2
E,4A,2|D,4G,2|C,2G,2G,,2|C,2G,,2C,,2|]
W:
W:
W:  From Musica Viva - http://www.musicaviva.com
W:  the Internet center for free sheet music downloads.
